Origami/24x24/apps/kturtle.svg

<svg width="24" height="24" version="1" xmlns="http://www.w3.org/2000/svg">
 <path d="m12 2.4995263c-1.662 0-3 1.338-3 3v3.0449219l-1.4316406-1.4316407c-0.4091697-0.4091696-0.942574-0.6132812-1.4765625-0.6132812-0.5339886 0-1.0693459 0.2041116-1.4785157 0.6132812-0.8183392 0.8183393-0.8183392 2.1367389 0 2.9550785l4.4316407 4.431641-4.4316407 4.431641c-0.8183392 0.818338-0.8183392 2.136739 0 2.955078 0.8183393 0.818339 2.136739 0.818339 2.9550782 0l4.4316406-4.431641 4.431641 4.431641c0.818338 0.818339 2.136738 0.818339 2.955078 0 0.818338-0.818339 0.818338-2.13674 0-2.955078l-4.431641-4.431641 4.431641-4.431641c0.818338-0.8183395 0.818338-2.1367392 0-2.9550785-0.81834-0.8183391-2.13674-0.8183391-2.955078 0l-1.431641 1.4316407v-3.0449219c0-1.662-1.338-3-3-3z" style="opacity:.2"/>
 <path d="m12 2c-1.662 0-3 1.338-3 3v3.0449219l-1.4316406-1.4316407c-0.4091697-0.4091696-0.942574-0.6132812-1.4765625-0.6132812-0.5339886 0-1.0693459 0.2041116-1.4785157 0.6132812-0.8183392 0.8183393-0.8183392 2.1367389 0 2.9550782l4.4316407 4.4316406-4.4316407 4.431641c-0.8183392 0.818338-0.8183392 2.136739 0 2.955078 0.8183393 0.818339 2.136739 0.818339 2.9550782 0l4.4316406-4.431641 4.431641 4.431641c0.818338 0.818339 2.136738 0.818339 2.955078 0 0.818338-0.818339 0.818338-2.13674 0-2.955078l-4.431641-4.431641 4.431641-4.4316406c0.818338-0.8183393 0.818338-2.1367389 0-2.9550782-0.81834-0.8183391-2.13674-0.8183391-2.955078 0l-1.431641 1.4316407v-3.0449219c0-1.662-1.338-3-3-3z" style="fill:#478f30"/>
 <path d="m12 2c-1.662 0-3 1.338-3 3v0.5c0-1.662 1.338-3 3-3s3 1.338 3 3v-0.5c0-1.662-1.338-3-3-3zm-5.9082031 4c-0.5339886 0-1.0693458 0.2041117-1.4785157 0.6132812-0.4730462 0.4730463-0.6636923 1.1125071-0.5898437 1.7265626 0.054118-0.4477925 0.2448612-0.88158 0.5898437-1.2265626 0.4091699-0.4091695 0.9445271-0.6132812 1.4785157-0.6132812 0.5339885 0 1.0673928 0.2041116 1.4765625 0.6132812l1.4316406 1.4316407v-0.5l-1.4316406-1.4316407c-0.4091697-0.4091696-0.942574-0.6132812-1.4765625-0.6132812zm11.816406 0c-0.534185 0-1.067393 0.2041117-1.476562 0.6132812l-1.431641 1.4316407v0.5l1.431641-1.4316407c0.818338-0.818339 2.136738-0.8183391 2.955078 0 0.344982 0.3449826 0.535726 0.7787701 0.589843 1.2265626 0.073849-0.6140555-0.116798-1.2535163-0.589843-1.7265626-0.40917-0.4091695-0.944331-0.6132812-1.478516-0.6132812zm-9.1132811 8.25l-4.1816407 4.181641c-0.4730462 0.473045-0.6636923 1.112506-0.5898437 1.726562 0.054118-0.447792 0.2448612-0.88158 0.5898437-1.226562l4.4316407-4.431641-0.25-0.25zm6.4101561 0l-0.25 0.25 4.431641 4.431641c0.344982 0.344982 0.535726 0.77877 0.589843 1.226562 0.073849-0.614056-0.116798-1.253517-0.589843-1.726562l-4.181641-4.181641z" style="fill:#ffffff;opacity:.1"/>
 <rect transform="matrix(0,-1,-1,0,0,0)" x="-22.5" y="-19" width="16" height="14" rx="8" ry="7" style="opacity:.2"/>
 <rect transform="matrix(0,-1,-1,0,0,0)" x="-22" y="-19" width="16" height="14" rx="8" ry="7" style="fill:#b08e57"/>
</svg>

<svg xmlns="http://www.w3.org/2000/svg" width="24" height="24" version="1">
 <path style="opacity:0.2" d="m 12,2.4995263 c -1.662,0 -3,1.338 -3,3 L 9,8.5444482 7.5683594,7.1128075 C 7.1591897,6.7036379 6.6257854,6.4995263 6.0917969,6.4995263 c -0.5339886,0 -1.0693459,0.2041116 -1.4785157,0.6132812 -0.8183392,0.8183393 -0.8183392,2.1367389 0,2.9550785 l 4.4316407,4.431641 -4.4316407,4.431641 c -0.8183392,0.818338 -0.8183392,2.136739 0,2.955078 0.8183393,0.818339 2.136739,0.818339 2.9550782,0 L 12,17.454605 l 4.431641,4.431641 c 0.818338,0.818339 2.136738,0.818339 2.955078,0 0.818338,-0.818339 0.818338,-2.13674 0,-2.955078 l -4.431641,-4.431641 4.431641,-4.431641 c 0.818338,-0.8183395 0.818338,-2.1367392 0,-2.9550785 -0.81834,-0.8183391 -2.13674,-0.8183391 -2.955078,0 L 15,8.5444482 15,5.4995263 c 0,-1.662 -1.338,-3 -3,-3 z"/>
 <path style="fill:#478f30" d="M 12 2 C 10.338 2 9 3.338 9 5 L 9 8.0449219 L 7.5683594 6.6132812 C 7.1591897 6.2041116 6.6257854 6 6.0917969 6 C 5.5578083 6 5.022451 6.2041116 4.6132812 6.6132812 C 3.794942 7.4316205 3.794942 8.7500201 4.6132812 9.5683594 L 9.0449219 14 L 4.6132812 18.431641 C 3.794942 19.249979 3.794942 20.56838 4.6132812 21.386719 C 5.4316205 22.205058 6.7500202 22.205058 7.5683594 21.386719 L 12 16.955078 L 16.431641 21.386719 C 17.249979 22.205058 18.568379 22.205058 19.386719 21.386719 C 20.205057 20.56838 20.205057 19.249979 19.386719 18.431641 L 14.955078 14 L 19.386719 9.5683594 C 20.205057 8.7500201 20.205057 7.4316205 19.386719 6.6132812 C 18.568379 5.7949421 17.249979 5.7949421 16.431641 6.6132812 L 15 8.0449219 L 15 5 C 15 3.338 13.662 2 12 2 z"/>
 <path style="opacity:0.1;fill:#ffffff" d="M 12 2 C 10.338 2 9 3.338 9 5 L 9 5.5 C 9 3.838 10.338 2.5 12 2.5 C 13.662 2.5 15 3.838 15 5.5 L 15 5 C 15 3.338 13.662 2 12 2 z M 6.0917969 6 C 5.5578083 6 5.0224511 6.2041117 4.6132812 6.6132812 C 4.140235 7.0863275 3.9495889 7.7257883 4.0234375 8.3398438 C 4.0775555 7.8920513 4.2682987 7.4582638 4.6132812 7.1132812 C 5.0224511 6.7041117 5.5578083 6.5 6.0917969 6.5 C 6.6257854 6.5 7.1591897 6.7041116 7.5683594 7.1132812 L 9 8.5449219 L 9 8.0449219 L 7.5683594 6.6132812 C 7.1591897 6.2041116 6.6257854 6 6.0917969 6 z M 17.908203 6 C 17.374018 6 16.84081 6.2041117 16.431641 6.6132812 L 15 8.0449219 L 15 8.5449219 L 16.431641 7.1132812 C 17.249979 6.2949422 18.568379 6.2949421 19.386719 7.1132812 C 19.731701 7.4582638 19.922445 7.8920513 19.976562 8.3398438 C 20.050411 7.7257883 19.859764 7.0863275 19.386719 6.6132812 C 18.977549 6.2041117 18.442388 6 17.908203 6 z M 8.7949219 14.25 L 4.6132812 18.431641 C 4.140235 18.904686 3.9495889 19.544147 4.0234375 20.158203 C 4.0775555 19.710411 4.2682987 19.276623 4.6132812 18.931641 L 9.0449219 14.5 L 8.7949219 14.25 z M 15.205078 14.25 L 14.955078 14.5 L 19.386719 18.931641 C 19.731701 19.276623 19.922445 19.710411 19.976562 20.158203 C 20.050411 19.544147 19.859764 18.904686 19.386719 18.431641 L 15.205078 14.25 z"/>
 <rect style="opacity:0.2" width="16" height="14" x="-22.5" y="-19" rx="8" ry="7" transform="matrix(0,-1,-1,0,0,0)"/>
 <rect style="fill:#b08e57" width="16" height="14" x="-22" y="-19" rx="8" ry="7" transform="matrix(0,-1,-1,0,0,0)"/>
</svg>
